resources/haticons/SVG/view_sidebar.svg

<!-- Generated by IcoMoon.io -->
<svg version="1.1" xmlns="http://www.w3.org/2000/svg" width="24" height="24" viewBox="0 0 24 24">
<title>view_sidebar</title>
<path d="M15.984 20.016h-13.969v-16.031h13.969v16.031zM18 8.016h3.984v-4.031h-3.984v4.031zM18 20.016h3.984v-4.031h-3.984v4.031zM18 14.016h3.984v-4.031h-3.984v4.031z"></path>
</svg>

<svg xmlns="http://www.w3.org/2000/svg" width="24" height="24"><path d="M15.984 20.016H2.015V3.985h13.969v16.031zm2.016-12h3.984V3.985H18v4.031zm0 12h3.984v-4.031H18v4.031zm0-6h3.984V9.985H18v4.031z"/></svg>
